tools/download-figma-icons/icons/solid/show-up.svg

<svg width="24" height="25" viewBox="0 0 24 25" fill="none" xmlns="http://www.w3.org/2000/svg">
<path fill-rule="evenodd" clip-rule="evenodd" d="M5.81376 0.750488C5.08851 0.750488 4.49976 1.33849 4.49976 2.06449V11.9922H7.12851V2.06449C7.12851 1.33849 6.53976 0.750488 5.81376 0.750488ZM16.0801 15.1272H18.4824C19.1026 15.1272 19.6051 15.6297 19.6051 16.2499V17.4372C19.6051 21.4647 16.2151 24.7422 12.0526 24.7422C7.89013 24.7422 4.50013 21.4647 4.50013 17.4372V14.6172C4.50013 13.9962 5.00338 13.4922 5.62513 13.4922H13.6726C13.9651 13.4922 14.2651 13.6197 14.4601 13.8304C14.5801 13.9504 14.7151 14.1447 14.7076 14.4147C14.6926 14.6322 14.6019 14.8422 14.4451 14.9997C14.2576 15.1729 14.0176 15.2697 13.7551 15.2697H8.64763C8.23513 15.2697 7.89763 15.6079 7.89763 16.0197C7.89763 16.4322 8.23513 16.7697 8.64763 16.7697H9.62263C11.8876 16.7697 13.7326 18.5322 13.7326 20.7004C13.7326 21.1122 14.0701 21.4504 14.4826 21.4504C14.8951 21.4504 15.2326 21.1122 15.2326 20.7004C15.2326 19.1547 14.5576 17.7597 13.4769 16.7697H13.7551C14.4001 16.7697 15.0076 16.5297 15.4801 16.0804C15.7576 15.8097 15.9601 15.4797 16.0801 15.1272ZM8.65918 7.1782C8.65918 6.4522 9.24718 5.8642 9.97318 5.8642C10.6992 5.8642 11.2872 6.4522 11.2872 7.1782V11.9924H8.65918V7.1782ZM15.4429 8.0095V12.682C15.3447 12.5853 15.2397 12.502 15.1197 12.4202C14.6772 12.1195 14.1379 11.9928 13.6054 11.9928H12.8179V8.0095C12.8179 7.282 13.4022 6.6895 14.1304 6.6895C14.8579 6.6895 15.4429 7.282 15.4429 8.0095ZM19.6053 12.3146V8.91033C19.6053 8.18283 19.0203 7.59783 18.2928 7.59783C17.5645 7.59783 16.9803 8.18283 16.9803 8.91033V12.3146C16.9803 13.0421 17.5645 13.6271 18.2928 13.6271C19.0203 13.6271 19.6053 13.0421 19.6053 12.3146Z" fill="black"/>
</svg>

<svg width="24" height="25" viewBox="0 0 24 25" fill="none" xmlns="http://www.w3.org/2000/svg"><path fill-rule="evenodd" clip-rule="evenodd" d="M5.814.75C5.089.75 4.5 1.338 4.5 2.064v9.928h2.629V2.064c0-.726-.59-1.314-1.315-1.314ZM16.08 15.127h2.402c.62 0 1.123.503 1.123 1.123v1.187c0 4.028-3.39 7.305-7.552 7.305-4.163 0-7.553-3.277-7.553-7.305v-2.82c0-.62.503-1.125 1.125-1.125h8.048a1.1 1.1 0 0 1 .787.338c.12.12.255.315.248.585a.92.92 0 0 1-.263.585c-.187.173-.427.27-.69.27H8.648a.753.753 0 0 0-.75.75c0 .412.337.75.75.75h.975c2.265 0 4.11 1.762 4.11 3.93 0 .412.337.75.75.75.412 0 .75-.338.75-.75 0-1.545-.675-2.94-1.756-3.93h.278a2.48 2.48 0 0 0 1.725-.69c.278-.27.48-.6.6-.953ZM8.66 7.178a1.314 1.314 0 1 1 2.627 0v4.814H8.66V7.178Zm6.783.831v4.673a2.284 2.284 0 0 0-.323-.262c-.443-.3-.982-.427-1.515-.427h-.787V8.009c0-.727.584-1.32 1.312-1.32.728 0 1.313.593 1.313 1.32Zm4.162 4.306V8.91a1.31 1.31 0 0 0-1.312-1.312c-.729 0-1.313.585-1.313 1.312v3.405c0 .727.584 1.312 1.313 1.312a1.31 1.31 0 0 0 1.312-1.312Z" fill="currentColor"/></svg>
